X: 9893
T: Derry, The
R: reel
M: 4/4
K: Amajor
c3B ABcA|~B2cB AFEF|ABce aAgA|(3fga ec BcAB|
c3B ABcA|~B2cA BAFB|1 ABce (3fga ec|BABc A3B:|2 ABce fece|fege a3g||
|:~f3e cfaf|geBe geag|~f3e cfaf|gfeg f2(3efg|
afec ABcA|~B2cA BAFB|1 ABce fece|fege a3g:|2 ABce (3fga ec|BABc A3B||

